X:1869
T:Family Jig
O:england
C:Trad
M:6/8
L:1/8
K:D
|:B|A2d dcd|B2e e2d|c2a a ^g a|
f2e d2B|A2d dcd|B2e e2d|cba gfe|
d3d2:|
|:e|fef def|g2g g3|efe dcd|
f2f f2A|d2d def|g2B e2d|cba gfe|
d3d2:|


